X:58
T:Humphrey’s Rondo. WM.058
M:6/8
L:1/8
Q:3/8=80
S:Wm.Mittell’s MS, New Romney,Kent,1799
R:.Rondeau
O:England
A:Kent
Z:vmp.Chris Partington
K:D
A|d>ed dfd|BGG FGA|Bcd ef(3f/e/d/|cAA ABc|!
d>ed dfd|BGG FGA|Bgf edc|d3-d2:|!
|:c/d/|e>fe ecA|Bcd AFD|geg fed|c/d/ec A2c/d/|!
e>fe ecA|Bcd def|geg fdf|(f3e2):|

